findly-builder/apps/searchassist/src/assets/icons/overview/data.svg

<svg width="19" height="17" viewBox="0 0 19 17" fill="none" xmlns="http://www.w3.org/2000/svg">
<path d="M0.282715 5.0918V13.2949C0.282715 14.8563 3.44799 16.1236 7.35437 16.1236C11.2608 16.1236 14.426 14.8563 14.426 13.2949V5.0918H0.282715Z" fill="#B893F2"/>
<path d="M2.26278 5.0918H0.282715V13.2949C0.282715 14.0558 1.03797 14.7489 2.26278 15.258V5.0918Z" fill="#F1E9FB"/>
<path d="M10.1831 5.0918V15.8888C12.6808 15.4504 14.4261 14.4547 14.4261 13.2949V5.0918H10.1831Z" fill="#F1E9FB"/>
<path d="M7.35437 1.97998C5.47885 1.97998 3.68015 2.278 2.35396 2.80848C1.02776 3.33895 0.282715 4.05844 0.282715 4.80864C0.282715 5.55885 1.02776 6.27833 2.35396 6.80881C3.68015 7.33929 5.47885 7.63731 7.35437 7.63731C9.2299 7.63731 11.0286 7.33929 12.3548 6.80881C13.681 6.27833 14.426 5.55885 14.426 4.80864C14.426 4.05844 13.681 3.33895 12.3548 2.80848C11.0286 2.278 9.2299 1.97998 7.35437 1.97998Z" fill="#B893F2"/>
<path d="M7.6687 3.39435C7.93459 3.39435 8.20614 3.41132 8.46921 3.42829H8.48618C8.64232 3.43366 8.77357 3.31147 8.77895 3.15532C8.78432 2.99918 8.66212 2.86793 8.50598 2.86256C8.22311 2.84276 7.94025 2.83144 7.67718 2.82861C7.52104 2.82861 7.39432 2.95534 7.39432 3.11148C7.39432 3.26762 7.52104 3.39435 7.67718 3.39435H7.6687ZM4.01123 3.76207C4.03386 3.7649 4.05649 3.7649 4.07912 3.76207C4.85078 3.57821 5.63743 3.46648 6.42974 3.42829C6.58588 3.4215 6.70695 3.28969 6.70016 3.13354C6.69988 3.12619 6.69931 3.11883 6.69847 3.11148C6.68941 2.95619 6.55675 2.83767 6.40146 2.84559C5.57294 2.88604 4.75008 3.00342 3.94335 3.19634C3.7872 3.21501 3.67576 3.35701 3.69442 3.51315C3.71309 3.66929 3.85509 3.78074 4.01123 3.76207Z" fill="#7027E5"/>
<path d="M7.35453 1.69727C3.23033 1.69727 0 3.06351 0 4.8088V13.2948C0 15.0401 3.23033 16.4063 7.35453 16.4063C11.4787 16.4063 14.7091 15.0401 14.7091 13.2948V4.8088C14.7091 3.06351 11.4787 1.69727 7.35453 1.69727ZM14.1433 7.63746C14.1433 8.86793 11.4165 10.1833 7.35453 10.1833C3.29256 10.1833 0.565733 8.86793 0.565733 7.63746V6.02795C1.66608 7.15942 4.25714 7.92033 7.35453 7.92033C10.4519 7.92033 13.043 7.15093 14.1433 6.02795V7.63746ZM7.35453 2.263C11.4165 2.263 14.1433 3.57833 14.1433 4.8088C14.1433 6.03926 11.4165 7.35459 7.35453 7.35459C3.29256 7.35459 0.565733 6.03926 0.565733 4.8088C0.565733 3.57833 3.29256 2.263 7.35453 2.263ZM7.35453 15.8406C3.29256 15.8406 0.565733 14.5253 0.565733 13.2948V11.6796C1.47373 12.6131 3.41703 13.3146 5.90059 13.5183H5.92322C6.07936 13.5245 6.21118 13.4028 6.2174 13.2467C6.22363 13.0906 6.10199 12.9587 5.94585 12.9525C2.87958 12.7036 0.565733 11.6315 0.565733 10.4661V8.85661C1.66608 9.98808 4.25714 10.749 7.35453 10.749C10.4519 10.749 13.043 9.97959 14.1433 8.85661V10.4661C14.1433 10.9555 13.7105 11.4618 12.9213 11.8805C12.7839 11.9585 12.7358 12.1333 12.8138 12.2708C12.8919 12.4083 13.0667 12.4564 13.2042 12.3783C13.549 12.1973 13.8653 11.9664 14.1433 11.6938V13.2948C14.1433 14.5253 11.4165 15.8406 7.35453 15.8406Z" fill="#7027E5"/>
<path d="M7.35464 12.4461C7.1985 12.4461 7.07178 12.5728 7.07178 12.729V13.2947C7.07178 13.4508 7.1985 13.5776 7.35464 13.5776C7.51079 13.5776 7.63751 13.4508 7.63751 13.2947V12.729C7.63751 12.5728 7.51079 12.4461 7.35464 12.4461ZM8.76898 12.3895C8.61283 12.3895 8.48611 12.5163 8.48611 12.6724V13.2381C8.48611 13.3943 8.61283 13.521 8.76898 13.521C8.92512 13.521 9.05184 13.3943 9.05184 13.2381V12.6724C9.05184 12.5163 8.92512 12.3895 8.76898 12.3895ZM10.1833 12.1915C10.0272 12.1915 9.90044 12.3182 9.90044 12.4744V13.0401C9.90044 13.1963 10.0272 13.323 10.1833 13.323C10.3394 13.323 10.4662 13.1963 10.4662 13.0401V12.4744C10.4662 12.3182 10.3394 12.1915 10.1833 12.1915ZM11.5976 11.8804C11.4415 11.8804 11.3148 12.0071 11.3148 12.1632V12.729C11.3148 12.8851 11.4415 13.0118 11.5976 13.0118C11.7538 13.0118 11.8805 12.8851 11.8805 12.729V12.1632C11.8805 12.0071 11.7538 11.8804 11.5976 11.8804Z" fill="#7027E5"/>
<path d="M17.8205 2.54565H15.5576V0.282715H13.2947V2.54565H11.0317V4.80858H13.2947V7.07151H15.5576V4.80858H17.8205V2.54565Z" fill="#FFDA2D"/>
<path d="M15.5578 7.35453H13.2948C13.1387 7.35453 13.012 7.2278 13.012 7.07166V5.0916H11.0319C10.8757 5.0916 10.749 4.96487 10.749 4.80873V2.5458C10.749 2.38966 10.8757 2.26293 11.0319 2.26293H13.012V0.282866C13.012 0.126724 13.1387 0 13.2948 0H15.5578C15.7139 0 15.8406 0.126724 15.8406 0.282866V2.26293H17.8207C17.9768 2.26293 18.1035 2.38966 18.1035 2.5458V4.80873C18.1035 4.96487 17.9768 5.0916 17.8207 5.0916H15.8406V7.07166C15.8406 7.2278 15.7139 7.35453 15.5578 7.35453ZM13.5777 6.78879H15.2749V4.80873C15.2749 4.65259 15.4016 4.52586 15.5578 4.52586H17.5378V2.82866H15.5578C15.4016 2.82866 15.2749 2.70194 15.2749 2.5458V0.565733H13.5777V2.5458C13.5777 2.70194 13.451 2.82866 13.2948 2.82866H11.3148V4.52586H13.2948C13.451 4.52586 13.5777 4.65259 13.5777 4.80873V6.78879Z" fill="#7027E5"/>
</svg>

<svg width="19" height="17" fill="none" xmlns="http://www.w3.org/2000/svg"><path d="M.283 5.092v8.203c0 1.561 3.165 2.829 7.071 2.829 3.907 0 7.072-1.268 7.072-2.83V5.093H.283Z" fill="#B893F2"/><path d="M2.263 5.092H.283v8.203c0 .76.755 1.454 1.98 1.963V5.092Zm7.92 0v10.797c2.498-.439 4.243-1.434 4.243-2.594V5.092h-4.243Z" fill="#F1E9FB"/><path d="M7.354 1.98c-1.875 0-3.674.298-5 .828-1.326.531-2.071 1.25-2.071 2s.745 1.47 2.071 2c1.326.531 3.125.83 5 .83 1.876 0 3.675-.299 5-.83 1.327-.53 2.072-1.25 2.072-2s-.745-1.469-2.071-2c-1.326-.53-3.125-.828-5-.828Z" fill="#B893F2"/><path d="M7.669 3.394c.266 0 .537.017.8.034h.017a.283.283 0 0 0 .02-.565c-.283-.02-.566-.032-.829-.034a.283.283 0 0 0 0 .565H7.67Zm-3.658.368a.273.273 0 0 0 .068 0 12.799 12.799 0 0 1 2.35-.334.283.283 0 0 0 .27-.317.283.283 0 0 0-.298-.265c-.828.04-1.65.157-2.458.35a.285.285 0 0 0 .068.566Z" fill="#7027E5"/><path d="M7.355 1.697C3.23 1.697 0 3.064 0 4.81v8.486c0 1.745 3.23 3.111 7.355 3.111 4.124 0 7.354-1.366 7.354-3.111V4.809c0-1.745-3.23-3.112-7.354-3.112Zm6.788 5.94c0 1.23-2.727 2.546-6.788 2.546-4.062 0-6.79-1.315-6.79-2.546V6.028C1.667 7.159 4.258 7.92 7.356 7.92c3.097 0 5.688-.77 6.788-1.892v1.61ZM7.355 2.263c4.061 0 6.788 1.315 6.788 2.546 0 1.23-2.727 2.546-6.788 2.546-4.062 0-6.79-1.316-6.79-2.546 0-1.23 2.728-2.546 6.79-2.546Zm0 13.578c-4.062 0-6.79-1.316-6.79-2.546V11.68c.909.933 2.852 1.635 5.336 1.838h.022a.283.283 0 0 0 .023-.566c-3.066-.248-5.38-1.32-5.38-2.486v-1.61c1.1 1.132 3.691 1.893 6.789 1.893 3.097 0 5.688-.77 6.788-1.892v1.61c0 .489-.433.995-1.222 1.413a.286.286 0 0 0 .283.498 4 4 0 0 0 .94-.684v1.6c0 1.231-2.728 2.547-6.79 2.547Z" fill="#7027E5"/><path d="M7.355 12.446a.283.283 0 0 0-.283.283v.566a.283.283 0 0 0 .566 0v-.566a.283.283 0 0 0-.283-.283Zm1.414-.056a.283.283 0 0 0-.283.282v.566a.283.283 0 0 0 .566 0v-.566a.283.283 0 0 0-.283-.283Zm1.414-.199a.283.283 0 0 0-.283.283v.566a.283.283 0 0 0 .566 0v-.566a.283.283 0 0 0-.283-.283Zm1.415-.31a.283.283 0 0 0-.283.282v.566a.283.283 0 0 0 .566 0v-.566a.283.283 0 0 0-.283-.283Z" fill="#7027E5"/><path d="M17.82 2.546h-2.262V.283h-2.263v2.263h-2.263v2.263h2.263v2.263h2.263V4.809h2.262V2.546Z" fill="#FFDA2D"/><path d="M15.558 7.355h-2.263a.283.283 0 0 1-.283-.283v-1.98h-1.98a.283.283 0 0 1-.283-.283V2.546c0-.156.127-.283.283-.283h1.98V.283c0-.156.127-.283.283-.283h2.263c.156 0 .283.127.283.283v1.98h1.98c.156 0 .282.127.282.283v2.263a.283.283 0 0 1-.282.283h-1.98v1.98a.283.283 0 0 1-.283.283Zm-1.98-.566h1.697v-1.98c0-.156.127-.283.283-.283h1.98V2.829h-1.98a.283.283 0 0 1-.283-.283V.566h-1.697v1.98a.283.283 0 0 1-.283.283h-1.98v1.697h1.98c.156 0 .283.127.283.283v1.98Z" fill="#7027E5"/></svg>
